X: 18
T:Arthur Darley's
T:The Sweedish Jig
M:6/8
L:1/8
C:Arthur Darley
R:Jig
D:Mick Maloney, "Strings Attached"
D:Gerald Trimble, "First Flight"
K:D
|:ABA AGF|EDC D3|Ade fed|edc d3|Ade fed|
M:9/8 edc cdd BAG|
M:6/8 FED EDC|DA,B, CDE|Ddd Eee|Fff Ggg|fed edc|1ddd dcB:|2d2 d d=c_B
K:F 
|:A2 f fef|Aff fef|Aff Agg|Aaa Abb|A2 f fef|Aff f2 g|fed ed^c|1d2 d d=cB
:|2d3 d2 e 
K:D 
|:fed edc|cdd BAG|FED EDC|DA,B, CDE|Ddd Eee|Fff Ggg|fed edc|1d3 d2 e:|2d
2 d dcB| 

